!!!!SEGMENT: pl-kk--kk-i-487--004_anonim--madrosci-ktora-z-ust-bozych-wyplywasz.krn
!!!cenid: 18xx:1359
!!!COM: Anonim
!!!COM-rismid: pe30004985
!!!CDT:
!!!CNT:
!!!OTL: Mądrości która z ust Bożych wypływasz
!!!PDT:
!!!AGN: Sacred
!!!SMS-siglum: PL-Kk
!!!SMS-shelfmark: Kk.I.487
!!!SMS-shelfwork: 004 W
!!!SMS-variant:
!!!SMS-altvar:
!!!NIFC-rismid: 1001141047
!!!URL-scan: http://repozytorium.nifc.pl/skany/pl-kk-nut--i-487
!!!ONB-nifc:
**kern	**text	**text	**kern	**text	**text	**kern	**text	**text	**kern
*part4	*part4	*part4	*part3	*part3	*part3	*part2	*part2	*part2	*part1
*staff4	*staff4	*staff4	*staff3	*staff3	*staff3	*staff2	*staff2	*staff2	*staff1
*I"Bas	*	*	*I"Tenor	*	*	*I"alt.	*	*	*I"Sopran
*I'B	*	*	*I'T	*	*	*I'A	*	*	*I'S
*clefF4	*	*	*clefC4	*	*	*clefC3	*	*	*clefC1
*k[b-e-a-]	*	*	*k[b-e-a-]	*	*	*k[b-e-a-]	*	*	*k[b-e-a-]
*M4/4	*	*	*M4/4	*	*	*M4/4	*	*	*M4/4
*met(c)	*	*	*met(c)	*	*	*met(c)	*	*	*met(c)
=1	=1	=1	=1	=1	=1	=1	=1	=1	=1
*2\right	*	*	*2\right	*	*	*2\right	*	*	*2\right
!LO:TX:t=P:problem:all\right:global	!	!	!LO:TX:t=P:problem:all\right:global	!	!	!LO:TX:t=P:problem:all\right:global	!	!	!LO:TX:t=P:problem:w źródle brak sopranu
!LO:TX:a:t=4.	!	!	!LO:TX:a:t=4.	!	!	!LO:TX:a:t=4.	!	!	!
!LO:TX:t=P:problem:oznaczenie numeru utworu: "4" przed kluczem	!	!	!LO:TX:t=P:problem:oznaczenie numeru utworu: "4" przed kluczem	!	!	!LO:TX:t=P:problem:oznaczenie numeru utworu: "4" przed kluczem	!	!	!
2E-\	mą-	o	2B-\	mą-	o	2g\	mą-	o	1ryy
4F\	-dro-	a-	4B-\	-dro-	a-	4a-\	-dro-	a-	.
4F\	-śći	-do-	4A-\	-śći	-do-	4d\	-śći	-do-	.
=2	=2	=2	=2	=2	=2	=2	=2	=2	=2
2E-\	kto-	-na-	2A-\	kto-	-na-	2e-\	kto-	-na-	1ryy
4E-\	-ra	-i	4G/	-ra	-i	4e-\	-ra	-i	.
4r	.	.	4r	.	.	4r	.	.	.
=3	=3	=3	=3	=3	=3	=3	=3	=3	=3
(>8E-\L	z ust	wo-	4B-\	z ust	wo-	4e-\	z ust	wo-	1ryy
8D-X\J)	.	.	.	.	.	.	.	.	.
4C/	Bo-	-dzu	4A-\	Bo-	-dzu	4e-\	Bo-	-dzu	.
4.BB-/	-zych	I-	4.G/	-zych	I-	4.e-\	-zych	I-	.
8C/	wy-	-zra-	8A-\	wy-	-zra-	8e-\	wy-	-zra-	.
=4	=4	=4	=4	=4	=4	=4	=4	=4	=4
2BB-/	-pły-	-e-	(>4B-\	-pły-	-e-	(>4e-\	-pły-	-e-	1ryy
.	.	.	4A-\)	.	.	4d\)	.	.	.
4E-\	-wasz	-la	4G/	-wasz	-la	4e-\	-wasz	-la	.
4r	.	.	4r	.	.	4r	.	.	.
=5	=5	=5	=5	=5	=5	=5	=5	=5	=5
(>4E-\	wszys-	coś	(>4B-\	wszy-	coś	2g\	wszys-	coś	1ryy
4C\)	.	.	4c\)	.	.	.	.	.	.
4D\	-tko	go	4An\	-stko	go	4f#X\	-tko	go	.
4G\	u-	wy-	4B-\	u-	wy-	4d\	u-	wy-	.
!LO:LB:g=original	!	!	!LO:LB:g=original	!	!	!LO:LB:g=original	!	!	!
=6	=6	=6	=6	=6	=6	=6	=6	=6	=6
(>4E-\	-rzą-	-ba-	(>4B-\	-rzą-	-ba-	(>4g\	-rzą-	-ba-	1ryy
4F\)	.	.	4An\)	.	.	4e-\)	.	.	.
4BB-/	-dzasz	-wił	4B-\	-dzasz	-wił	4d\	-dzasz	-wił	.
4r	.	.	4r	.	.	4r	.	.	.
=7	=7	=7	=7	=7	=7	=7	=7	=7	=7
(>8E-\L	ze-	z rąk	4B-\	ze-	z rąk	4e-\	ze-	z rąk	1ryy
8D-X\J)	.	.	.	.	.	.	.	.	.
4C/	-wsząd	nie-	4A-X\	-wsząd	nie-	4e-\	-wsząd	nie-	.
4.BB-/	cel	-przy-	4.G/	cel	-przy-	4.e-\	cel	-przy-	.
8Dn\	do-	-ja-	8B-\	do-	-ja-	8f\	do-	-ja-	.
=8	=8	=8	=8	=8	=8	=8	=8	=8	=8
(>4E-\	-by-	-cie-	2B-\	-by-	-cie-	(>4e-\	-by-	-cie-	1ryy
4A-\)	.	.	.	.	.	4d\)	.	.	.
4G\	-wasz	-la	4B-\	-wasz	-la	4e-\	-wasz	-la	.
4r	.	.	4r	.	.	4r	.	.	.
=9	=9	=9	=9	=9	=9	=9	=9	=9	=9
2E-\	przy-	przy-	2G/	przy-	przy-	2B-/	przy-	przy-	1ryy
4D\	-bądz	-bądz	4B-\	-bądz	-bądz	4B-/	-bądz	-bądz	.
4E-\	i	u-	4B-\	i	u-	4e-\	i	u-	.
=10	=10	=10	=10	=10	=10	=10	=10	=10	=10
(>4.F\	na-	-pa-	2B-\	na-	-pa-	(>4.d\	na-	-pa-	1ryy
8E-\)	.	.	.	.	.	8e-\)	.	.	.
4BB-/	-ucz	-dłym	4B-\	-ucz	-dłym	4d\	-ucz	-dłym	.
4r	.	.	4r	.	.	4r	.	.	.
!LO:LB:g=original	!	!	!LO:LB:g=original	!	!	!LO:LB:g=original	!	!	!
=11	=11	=11	=11	=11	=11	=11	=11	=11	=11
4E-\	nas	pod	4G/	nas	pod	4B-/	nas	pod	1ryy
4D\	dróg	cięz-	4F/	dróg	cięz-	4B-/	dróg	cięz-	.
4E-\	ro-	-kim	4E-/	ro-	-kim	4B-/	ro-	-kim	.
4E-\	-strop-	brze-	4G/	-stro-	brze-	4B-/	-strop-	brze-	.
=12	=12	=12	=12	=12	=12	=12	=12	=12	=12
(<4BB-/	-no-	-mie-	2F/	-pno-	-mie-	(>4d\	-no-	-mie-	1ryy
4AAn/)	.	.	.	.	.	4e-\)	.	.	.
4BB-/	-śći	-niem	4F/	-śći	-niem	4d\	-sci	-niem	.
4r	.	.	4r	.	.	4r	.	.	.
=13	=13	=13	=13	=13	=13	=13	=13	=13	=13
(>4E-\	wie-	z sil-	2G/	wie-	z sil-	(>4B-\	wie-	z sil-	1ryy
4C\)	.	.	.	.	.	4c\)	.	.	.
(>8AA-\L	-czna	-nym	4A-\	-czna	-nym	4c\	-czna	-nym	.
8F\J)	.	.	.	.	.	.	.	.	.
4En\	mą-	ra-	4B-\	mą-	ra-	4c\	mą-	ra-	.
=14	=14	=14	=14	=14	=14	=14	=14	=14	=14
4.F\	-dro-	-mie-	(>4.A-\	-dro-	-mie-	(>4.c\	-dro-	-mie-	1ryy
8BB-/	.	.	8B-\)	.	.	8e-\)	.	.	.
2BB-/	.	.	(>4B-\	o-	-e-	(>4e-\	o-	-e-	.
.	.	.	4A-\)	.	.	4d\)	.	.	.
=15	=15	=15	=15	=15	=15	=15	=15	=15	=15
4E-\	-sci	-niem.	4G/	-śći	-niem	4e-\	-śći	-niem	1ryy
4r	.	.	4r	.	.	4r	.	.	.
2r	.	.	2r	.	.	2r	.	.	.
==	==	==	==	==	==	==	==	==	==
*-	*-	*-	*-	*-	*-	*-	*-	*-	*-
!!!system-decoration: [(s1,s2,s3,s4)]
!!!RDF**kern: > = above
!!!RDF**kern: < = below
!!!EED: Mateusz Mrugas
!!!EST: 2021-01-18
!!!ENC: Tomasz Grochalski
!!!END: 2021-01-10
